src/assets/svg/icons/fa/nuevos/classic/duotone/helicopter classic duotone.svg

<svg xmlns="http://www.w3.org/2000/svg" viewBox="0 0 640 512"><defs><style>.fa-secondary{opacity:.4}</style></defs><path class="fa-primary" d="M303.1 384C293.9 384 284.4 379.3 278.4 371.2L191.1 256L47.19 198.1C37.65 194.3 30.52 186.1 28.03 176.1L4.97 83.88C2.445 73.78 10.08 64 20.49 64H47.1C58.07 64 67.56 68.74 73.6 76.8L111.1 128H416C504.4 128 576 199.6 576 288V352C576 369.7 561.7 384 544 384H303.1zM384 320H512V288C512 234.1 469 192 416 192H384V320z"/><path class="fa-secondary" d="M128 32C128 14.33 142.3 0 160 0H544C561.7 0 576 14.33 576 32C576 49.67 561.7 64 544 64H384V128H320V64H160C142.3 64 128 49.67 128 32zM630.6 470.6L626.7 474.5C602.7 498.5 570.2 512 536.2 512H256C238.3 512 224 497.7 224 480C224 462.3 238.3 448 256 448H536.2C553.2 448 569.5 441.3 581.5 429.3L585.4 425.4C597.9 412.9 618.1 412.9 630.6 425.4C643.1 437.9 643.1 458.1 630.6 470.6L630.6 470.6z"/></svg>

<svg xmlns="http://www.w3.org/2000/svg" viewBox="0 0 640 512"><!--! Font Awesome Pro 6.4.0 by @fontawesome - https://fontawesome.com License - https://fontawesome.com/license (Commercial License) Copyright 2023 Fonticons, Inc. --><defs><style>.fa-secondary{opacity:.4}</style></defs><path class="fa-primary" d="M384 384H320c-20.1 0-39.1-9.5-51.2-25.6l-71.4-95.2c-3.5-4.7-8.3-8.3-13.7-10.5L47.2 198.1c-9.5-3.8-16.7-12-19.2-22L5 83.9C2.4 73.8 10.1 64 20.5 64H48c10.1 0 19.6 4.7 25.6 12.8L112 128H384h32c88.4 0 160 71.6 160 160v64c0 17.7-14.3 32-32 32H384zm0-64H512V288c0-53-43-96-96-96H384V320z"/><path class="fa-secondary" d="M128 32c0-17.7 14.3-32 32-32H544c17.7 0 32 14.3 32 32s-14.3 32-32 32H384v64H320V64H160c-17.7 0-32-14.3-32-32zM630.6 425.4c12.5 12.5 12.5 32.8 0 45.3l-3.9 3.9c-24 24-56.6 37.5-90.5 37.5H256c-17.7 0-32-14.3-32-32s14.3-32 32-32H536.2c17 0 33.3-6.7 45.3-18.7l3.9-3.9c12.5-12.5 32.8-12.5 45.3 0z"/></svg>
